symbols/web/moving/materialsymbolsrounded/moving_wght300gradN25_48px.svg

<svg xmlns="http://www.w3.org/2000/svg" height="48" width="48"><path d="M5.45 34.5q-.35-.35-.35-.8 0-.45.35-.75l9.7-9.7q1.45-1.5 3.575-1.5t3.625 1.5l2.3 2.3q.85.85 2.075.85t2.075-.85L39.6 14.7h-5.3q-.5 0-.825-.3-.325-.3-.325-.75 0-.5.325-.825.325-.325.825-.325h7.65q.65 0 1.025.425.375.425.375.975v7.75q0 .45-.3.75t-.75.3q-.5 0-.825-.3-.325-.3-.325-.75V16.3l-10.8 10.8q-1.55 1.45-3.65 1.475-2.1.025-3.6-1.475l-2.35-2.35q-.85-.8-2.05-.8-1.2 0-2 .8L6.95 34.5q-.3.3-.75.3t-.75-.3Z"/></svg>

<svg xmlns="http://www.w3.org/2000/svg" height="48" width="48"><path d="M5.45 34.5Q5.1 34.15 5.1 33.7Q5.1 33.25 5.45 32.95L15.15 23.25Q16.6 21.75 18.725 21.75Q20.85 21.75 22.35 23.25L24.65 25.55Q25.5 26.4 26.725 26.4Q27.95 26.4 28.8 25.55L39.6 14.7H34.3Q33.8 14.7 33.475 14.4Q33.15 14.1 33.15 13.65Q33.15 13.15 33.475 12.825Q33.8 12.5 34.3 12.5H41.95Q42.6 12.5 42.975 12.925Q43.35 13.35 43.35 13.9V21.65Q43.35 22.1 43.05 22.4Q42.75 22.7 42.3 22.7Q41.8 22.7 41.475 22.4Q41.15 22.1 41.15 21.65V16.3L30.35 27.1Q28.8 28.55 26.7 28.575Q24.6 28.6 23.1 27.1L20.75 24.75Q19.9 23.95 18.7 23.95Q17.5 23.95 16.7 24.75L6.95 34.5Q6.65 34.8 6.2 34.8Q5.75 34.8 5.45 34.5Z"/></svg>
